configs/network-icons/iota-evm-ico.svg

<svg width="180" height="180" viewBox="0 0 180 180" fill="none" xmlns="http://www.w3.org/2000/svg">
<g clip-path="url(#clip0_11324_7606)">
<circle cx="90" cy="90" r="90" fill="#101112"/>
<path fill-rule="evenodd" clip-rule="evenodd" d="M129.895 32.7117C129.895 37.1547 126.284 40.7568 121.829 40.7568C117.375 40.7568 113.764 37.1547 113.764 32.7117C113.764 28.2684 117.375 24.6666 121.829 24.6666C126.284 24.6666 129.895 28.2684 129.895 32.7117ZM138.97 146.35C138.97 150.793 135.358 154.395 130.904 154.395C126.449 154.395 122.838 150.793 122.838 146.35C122.838 141.906 126.449 138.305 130.904 138.305C135.358 138.305 138.97 141.906 138.97 146.35ZM124.135 60.8702C127.874 60.8702 130.905 57.8469 130.905 54.118C130.905 50.3887 127.874 47.3658 124.135 47.3658C120.397 47.3658 117.366 50.3887 117.366 54.118C117.366 57.8469 120.397 60.8702 124.135 60.8702ZM148.91 56.7032C148.91 60.4322 145.879 63.4554 142.14 63.4554C138.402 63.4554 135.371 60.4322 135.371 56.7032C135.371 52.974 138.402 49.9511 142.14 49.9511C145.879 49.9511 148.91 52.974 148.91 56.7032ZM121.83 77.9654C125.012 77.9654 127.592 75.3926 127.592 72.2189C127.592 69.0452 125.012 66.4725 121.83 66.4725C118.648 66.4725 116.069 69.0452 116.069 72.2189C116.069 75.3926 118.648 77.9654 121.83 77.9654ZM145.597 74.6622C145.597 77.8359 143.017 80.4086 139.835 80.4086C136.653 80.4086 134.074 77.8359 134.074 74.6622C134.074 71.4885 136.653 68.9158 139.835 68.9158C143.017 68.9158 145.597 71.4885 145.597 74.6622ZM154.239 86.0104C157.42 86.0104 160 83.4377 160 80.264C160 77.0903 157.42 74.5175 154.239 74.5175C151.057 74.5175 148.477 77.0903 148.477 80.264C148.477 83.4377 151.057 86.0104 154.239 86.0104ZM139.545 89.1715C139.545 91.9484 137.289 94.1994 134.504 94.1994C131.72 94.1994 129.463 91.9484 129.463 89.1715C129.463 86.3942 131.72 84.1432 134.504 84.1432C137.289 84.1432 139.545 86.3942 139.545 89.1715ZM116.502 91.7564C119.286 91.7564 121.543 89.5051 121.543 86.7282C121.543 83.9513 119.286 81.6999 116.502 81.6999C113.718 81.6999 111.461 83.9513 111.461 86.7282C111.461 89.5051 113.718 91.7564 116.502 91.7564ZM154.093 94.7732C154.093 97.5501 151.836 99.8015 149.052 99.8015C146.268 99.8015 144.011 97.5501 144.011 94.7732C144.011 91.9963 146.268 89.745 149.052 89.745C151.836 89.745 154.093 91.9963 154.093 94.7732ZM127.304 104.685C129.69 104.685 131.625 102.756 131.625 100.375C131.625 97.9951 129.69 96.0654 127.304 96.0654C124.918 96.0654 122.983 97.9951 122.983 100.375C122.983 102.756 124.918 104.685 127.304 104.685ZM146.173 105.835C146.173 108.215 144.238 110.145 141.852 110.145C139.466 110.145 137.531 108.215 137.531 105.835C137.531 103.455 139.466 101.525 141.852 101.525C144.238 101.525 146.173 103.455 146.173 105.835ZM109.443 102.099C111.829 102.099 113.764 100.169 113.764 97.7892C113.764 95.4088 111.829 93.4795 109.443 93.4795C107.056 93.4795 105.121 95.4088 105.121 97.7892C105.121 100.169 107.056 102.099 109.443 102.099ZM122.983 108.135C122.983 110.118 121.371 111.726 119.382 111.726C117.393 111.726 115.781 110.118 115.781 108.135C115.781 106.151 117.393 104.543 119.382 104.543C121.371 104.543 122.983 106.151 122.983 108.135ZM125.574 121.638C127.324 121.638 128.743 120.223 128.743 118.477C128.743 116.732 127.324 115.317 125.574 115.317C123.824 115.317 122.405 116.732 122.405 118.477C122.405 120.223 123.824 121.638 125.574 121.638ZM120.533 121.065C120.533 122.493 119.373 123.651 117.941 123.651C116.509 123.651 115.348 122.493 115.348 121.065C115.348 119.637 116.509 118.479 117.941 118.479C119.373 118.479 120.533 119.637 120.533 121.065ZM111.171 116.179C112.921 116.179 114.34 114.764 114.34 113.019C114.34 111.273 112.921 109.858 111.171 109.858C109.421 109.858 108.002 111.273 108.002 113.019C108.002 114.764 109.421 116.179 111.171 116.179ZM104.979 105.692C104.979 107.676 103.367 109.284 101.378 109.284C99.3893 109.284 97.7772 107.676 97.7772 105.692C97.7772 103.708 99.3893 102.101 101.378 102.101C103.367 102.101 104.979 103.708 104.979 105.692ZM101.233 82.2739C103.222 82.2739 104.834 80.666 104.834 78.6824C104.834 76.6987 103.222 75.0908 101.233 75.0908C99.2446 75.0908 97.6325 76.6987 97.6325 78.6824C97.6325 80.666 99.2446 82.2739 101.233 82.2739ZM105.986 66.4718C105.986 68.2171 104.568 69.6321 102.817 69.6321C101.067 69.6321 99.6486 68.2171 99.6486 66.4718C99.6486 64.7262 101.067 63.3112 102.817 63.3112C104.568 63.3112 105.986 64.7262 105.986 66.4718ZM106.275 59.2889C107.706 59.2889 108.867 58.1311 108.867 56.7031C108.867 55.2747 107.706 54.1169 106.275 54.1169C104.843 54.1169 103.682 55.2747 103.682 56.7031C103.682 58.1311 104.843 59.2889 106.275 59.2889ZM103.394 51.2444C103.394 52.99 101.975 54.405 100.225 54.405C98.4753 54.405 97.0565 52.99 97.0565 51.2444C97.0565 49.4991 98.4753 48.0838 100.225 48.0838C101.975 48.0838 103.394 49.4991 103.394 51.2444ZM133.785 117.184C135.773 117.184 137.386 115.576 137.386 113.592C137.386 111.609 135.773 110.001 133.785 110.001C131.796 110.001 130.184 111.609 130.184 113.592C130.184 115.576 131.796 117.184 133.785 117.184ZM95.616 46.6469C95.616 48.6302 94.0039 50.2381 92.0151 50.2381C90.0267 50.2381 88.4143 48.6302 88.4143 46.6469C88.4143 44.6632 90.0267 43.0553 92.0151 43.0553C94.0039 43.0553 95.616 44.6632 95.616 46.6469ZM94.4645 65.4666C96.4533 65.4666 98.0654 63.8583 98.0654 61.875C98.0654 59.8914 96.4533 58.2834 94.4645 58.2834C92.4758 58.2834 90.8637 59.8914 90.8637 61.875C90.8637 63.8583 92.4758 65.4666 94.4645 65.4666ZM94.7542 75.6661C94.7542 78.0465 92.8197 79.9758 90.4332 79.9758C88.0467 79.9758 86.1123 78.0465 86.1123 75.6661C86.1123 73.2859 88.0467 71.3563 90.4332 71.3563C92.8197 71.3563 94.7542 73.2859 94.7542 75.6661ZM77.3243 79.9748C80.1085 79.9748 82.3656 77.7235 82.3656 74.9466C82.3656 72.1697 80.1085 69.9183 77.3243 69.9183C74.5404 69.9183 72.2833 72.1697 72.2833 74.9466C72.2833 77.7235 74.5404 79.9748 77.3243 79.9748ZM67.8195 77.6787C67.8195 80.8524 65.24 83.4252 62.058 83.4252C58.8764 83.4252 56.2969 80.8524 56.2969 77.6787C56.2969 74.5051 58.8764 71.9323 62.058 71.9323C65.24 71.9323 67.8195 74.5051 67.8195 77.6787ZM45.3499 91.6144C49.0887 91.6144 52.1196 88.5912 52.1196 84.8623C52.1196 81.133 49.0887 78.1101 45.3499 78.1101C41.6113 78.1101 38.5805 81.133 38.5805 84.8623C38.5805 88.5912 41.6113 91.6144 45.3499 91.6144ZM36.1314 97.3594C36.1314 101.802 32.5203 105.404 28.0655 105.404C23.6111 105.404 20 101.802 20 97.3594C20 92.9161 23.6111 89.3143 28.0655 89.3143C32.5203 89.3143 36.1314 92.9161 36.1314 97.3594ZM38.5811 74.8043C42.3199 74.8043 45.3505 71.7811 45.3505 68.0521C45.3505 64.3229 42.3199 61.3 38.5811 61.3C34.8422 61.3 31.8116 64.3229 31.8116 68.0521C31.8116 71.7811 34.8422 74.8043 38.5811 74.8043ZM61.0473 60.8686C61.0473 64.0423 58.4678 66.6151 55.2858 66.6151C52.1041 66.6151 49.5247 64.0423 49.5247 60.8686C49.5247 57.6949 52.1041 55.1222 55.2858 55.1222C58.4678 55.1222 61.0473 57.6949 61.0473 60.8686ZM52.8388 51.387C56.0208 51.387 58.5999 48.8142 58.5999 45.6405C58.5999 42.4668 56.0208 39.8941 52.8388 39.8941C49.6568 39.8941 47.0773 42.4668 47.0773 45.6405C47.0773 48.8142 49.6568 51.387 52.8388 51.387ZM73.1471 42.9111C73.1471 45.688 70.8903 47.9393 68.1061 47.9393C65.3218 47.9393 63.065 45.688 63.065 42.9111C63.065 40.1342 65.3218 37.8828 68.1061 37.8828C70.8903 37.8828 73.1471 40.1342 73.1471 42.9111ZM81.2123 47.9396C83.5988 47.9396 85.5332 46.01 85.5332 43.6299C85.5332 41.2497 83.5988 39.3201 81.2123 39.3201C78.8261 39.3201 76.8913 41.2497 76.8913 43.6299C76.8913 46.01 78.8261 47.9396 81.2123 47.9396ZM87.9823 58.8559C87.9823 61.2364 86.0475 63.1657 83.661 63.1657C81.2748 63.1657 79.3401 61.2364 79.3401 58.8559C79.3401 56.4758 81.2748 54.5462 83.661 54.5462C86.0475 54.5462 87.9823 56.4758 87.9823 58.8559ZM70.5548 63.3111C73.339 63.3111 75.5958 61.0601 75.5958 58.2832C75.5958 55.5063 73.339 53.2549 70.5548 53.2549C67.7705 53.2549 65.5138 55.5063 65.5138 58.2832C65.5138 61.0601 67.7705 63.3111 70.5548 63.3111ZM58.8879 98.9393C58.8879 100.368 57.7273 101.525 56.2954 101.525C54.8635 101.525 53.7028 100.368 53.7028 98.9393C53.7028 97.5112 54.8635 96.3534 56.2954 96.3534C57.7273 96.3534 58.8879 97.5112 58.8879 98.9393ZM66.6666 100.232C68.4167 100.232 69.8352 98.8174 69.8352 97.0718C69.8352 95.3265 68.4167 93.9115 66.6666 93.9115C64.9165 93.9115 63.4977 95.3265 63.4977 97.0718C63.4977 98.8174 64.9165 100.232 66.6666 100.232ZM81.6446 92.3326C81.6446 94.3163 80.0326 95.9242 78.0441 95.9242C76.0554 95.9242 74.4433 94.3163 74.4433 92.3326C74.4433 90.349 76.0554 88.741 78.0441 88.741C80.0326 88.741 81.6446 90.349 81.6446 92.3326ZM80.7803 107.415C83.1664 107.415 85.1012 105.485 85.1012 103.105C85.1012 100.725 83.1664 98.7953 80.7803 98.7953C78.3938 98.7953 76.4593 100.725 76.4593 103.105C76.4593 105.485 78.3938 107.415 80.7803 107.415ZM70.5554 106.553C70.5554 108.536 68.9433 110.144 66.9545 110.144C64.9658 110.144 63.3537 108.536 63.3537 106.553C63.3537 104.569 64.9658 102.961 66.9545 102.961C68.9433 102.961 70.5554 104.569 70.5554 106.553ZM54.7107 110C56.4608 110 57.8796 108.585 57.8796 106.84C57.8796 105.094 56.4608 103.679 54.7107 103.679C52.9609 103.679 51.5421 105.094 51.5421 106.84C51.5421 108.585 52.9609 110 54.7107 110ZM58.4544 116.322C58.4544 118.306 56.8423 119.914 54.8535 119.914C52.8648 119.914 51.2527 118.306 51.2527 116.322C51.2527 114.339 52.8648 112.731 54.8535 112.731C56.8423 112.731 58.4544 114.339 58.4544 116.322ZM69.5467 121.782C71.9332 121.782 73.8676 119.852 73.8676 117.472C73.8676 115.092 71.9332 113.162 69.5467 113.162C67.1602 113.162 65.2258 115.092 65.2258 117.472C65.2258 119.852 67.1602 121.782 69.5467 121.782ZM91.7286 114.887C91.7286 117.663 89.4715 119.914 86.6872 119.914C83.9033 119.914 81.6462 117.663 81.6462 114.887C81.6462 112.109 83.9033 109.858 86.6872 109.858C89.4715 109.858 91.7286 112.109 91.7286 114.887ZM96.7685 132.412C99.9502 132.412 102.53 129.839 102.53 126.665C102.53 123.491 99.9502 120.919 96.7685 120.919C93.5865 120.919 91.007 123.491 91.007 126.665C91.007 129.839 93.5865 132.412 96.7685 132.412ZM80.6369 129.109C80.6369 131.886 78.3798 134.137 75.5956 134.137C72.8116 134.137 70.5545 131.886 70.5545 129.109C70.5545 126.332 72.8116 124.081 75.5956 124.081C78.3798 124.081 80.6369 126.332 80.6369 129.109ZM63.6402 143.905C66.4242 143.905 68.6813 141.654 68.6813 138.877C68.6813 136.1 66.4242 133.849 63.6402 133.849C60.856 133.849 58.5989 136.1 58.5989 138.877C58.5989 141.654 60.856 143.905 63.6402 143.905ZM79.3397 150.802C79.3397 153.976 76.7603 156.549 73.5783 156.549C70.3966 156.549 67.8171 153.976 67.8171 150.802C67.8171 147.628 70.3966 145.056 73.5783 145.056C76.7603 145.056 79.3397 147.628 79.3397 150.802ZM100.082 158.847C103.821 158.847 106.852 155.824 106.852 152.095C106.852 148.366 103.821 145.343 100.082 145.343C96.3433 145.343 93.3124 148.366 93.3124 152.095C93.3124 155.824 96.3433 158.847 100.082 158.847ZM91.2947 141.032C91.2947 144.205 88.7152 146.778 85.5332 146.778C82.3515 146.778 79.7721 144.205 79.7721 141.032C79.7721 137.858 82.3515 135.285 85.5332 135.285C88.7152 135.285 91.2947 137.858 91.2947 141.032ZM111.172 144.482C114.911 144.482 117.942 141.459 117.942 137.729C117.942 134 114.911 130.978 111.172 130.978C107.434 130.978 104.403 134 104.403 137.729C104.403 141.459 107.434 144.482 111.172 144.482ZM61.912 127.242C61.912 129.622 59.9775 131.551 57.591 131.551C55.2049 131.551 53.2701 129.622 53.2701 127.242C53.2701 124.861 55.2049 122.932 57.591 122.932C59.9775 122.932 61.912 124.861 61.912 127.242Z" fill="white"/>
</g>
<defs>
<clipPath id="clip0_11324_7606">
<rect width="180" height="180" rx="90" fill="white"/>
</clipPath>
</defs>
</svg>

<svg xmlns="http://www.w3.org/2000/svg" fill="none" viewBox="0 0 180 180">
  <g clip-path="url(#iota-evm-ico_svg__a)">
    <circle cx="90" cy="90" r="90" fill="#101112"/>
    <path fill="#fff" fill-rule="evenodd" d="M129.895 32.712c0 4.443-3.611 8.045-8.066 8.045-4.454 0-8.065-3.602-8.065-8.045 0-4.444 3.611-8.045 8.065-8.045 4.455 0 8.066 3.601 8.066 8.045Zm9.075 113.638c0 4.443-3.612 8.045-8.066 8.045-4.455 0-8.066-3.602-8.066-8.045 0-4.444 3.611-8.045 8.066-8.045 4.454 0 8.066 3.601 8.066 8.045Zm-14.835-85.48c3.739 0 6.77-3.023 6.77-6.752 0-3.73-3.031-6.752-6.77-6.752-3.738 0-6.769 3.023-6.769 6.752 0 3.729 3.031 6.752 6.769 6.752Zm24.775-4.167c0 3.73-3.031 6.752-6.77 6.752-3.738 0-6.769-3.023-6.769-6.752 0-3.729 3.031-6.752 6.769-6.752 3.739 0 6.77 3.023 6.77 6.752Zm-27.08 21.262c3.182 0 5.762-2.572 5.762-5.746 0-3.174-2.58-5.746-5.762-5.746-3.182 0-5.761 2.572-5.761 5.746 0 3.174 2.579 5.746 5.761 5.746Zm23.767-3.303c0 3.174-2.58 5.747-5.762 5.747-3.182 0-5.761-2.573-5.761-5.747s2.579-5.746 5.761-5.746 5.762 2.573 5.762 5.746Zm8.642 11.348c3.181 0 5.761-2.572 5.761-5.746 0-3.174-2.58-5.746-5.761-5.746-3.182 0-5.762 2.572-5.762 5.746 0 3.174 2.58 5.746 5.762 5.746Zm-14.694 3.161a5.034 5.034 0 0 1-5.041 5.028 5.034 5.034 0 0 1-5.041-5.028 5.035 5.035 0 0 1 5.041-5.028 5.034 5.034 0 0 1 5.041 5.028Zm-23.043 2.585a5.035 5.035 0 0 0 5.041-5.028 5.035 5.035 0 0 0-5.041-5.028 5.035 5.035 0 0 0-5.041 5.028 5.035 5.035 0 0 0 5.041 5.028Zm37.591 3.017a5.035 5.035 0 0 1-5.041 5.029 5.035 5.035 0 0 1-5.041-5.029 5.035 5.035 0 0 1 5.041-5.028 5.035 5.035 0 0 1 5.041 5.028Zm-26.789 9.912a4.315 4.315 0 0 0 4.321-4.31c0-2.38-1.935-4.31-4.321-4.31a4.316 4.316 0 0 0-4.321 4.31 4.315 4.315 0 0 0 4.321 4.31Zm18.869 1.15c0 2.38-1.935 4.31-4.321 4.31a4.316 4.316 0 0 1-4.321-4.31c0-2.38 1.935-4.31 4.321-4.31a4.316 4.316 0 0 1 4.321 4.31Zm-36.73-3.736a4.316 4.316 0 0 0 4.321-4.31c0-2.38-1.935-4.31-4.321-4.31a4.316 4.316 0 0 0-4.322 4.31c0 2.38 1.935 4.31 4.322 4.31Zm13.54 6.036a3.596 3.596 0 0 1-3.601 3.591 3.596 3.596 0 0 1-3.601-3.591 3.596 3.596 0 0 1 3.601-3.592 3.596 3.596 0 0 1 3.601 3.592Zm2.591 13.503a3.165 3.165 0 0 0 3.169-3.161 3.165 3.165 0 0 0-3.169-3.16 3.165 3.165 0 0 0-3.169 3.16 3.165 3.165 0 0 0 3.169 3.161Zm-5.041-.573a2.589 2.589 0 0 1-2.592 2.586 2.59 2.59 0 0 1-2.593-2.586 2.59 2.59 0 0 1 2.593-2.586 2.589 2.589 0 0 1 2.592 2.586Zm-9.362-4.886a3.165 3.165 0 0 0 3.169-3.16 3.165 3.165 0 0 0-3.169-3.161 3.165 3.165 0 0 0-3.169 3.161 3.165 3.165 0 0 0 3.169 3.16Zm-6.192-10.487a3.596 3.596 0 0 1-3.601 3.592 3.596 3.596 0 0 1-3.6-3.592 3.595 3.595 0 0 1 3.6-3.591 3.595 3.595 0 0 1 3.601 3.591Zm-3.746-23.418a3.596 3.596 0 0 0 3.601-3.592 3.596 3.596 0 0 0-3.601-3.591 3.596 3.596 0 0 0-3.6 3.591 3.596 3.596 0 0 0 3.6 3.592Zm4.753-15.802a3.164 3.164 0 0 1-3.169 3.16 3.164 3.164 0 0 1-3.168-3.16 3.164 3.164 0 0 1 3.168-3.16 3.164 3.164 0 0 1 3.169 3.16Zm.289-7.183a2.59 2.59 0 0 0 2.592-2.586 2.59 2.59 0 0 0-2.592-2.586 2.59 2.59 0 0 0-2.593 2.586 2.59 2.59 0 0 0 2.593 2.586Zm-2.881-8.045a3.165 3.165 0 0 1-3.169 3.161 3.165 3.165 0 0 1-3.168-3.16 3.165 3.165 0 0 1 3.168-3.161 3.165 3.165 0 0 1 3.169 3.16Zm30.391 65.94a3.597 3.597 0 0 0 3.601-3.592 3.597 3.597 0 0 0-3.601-3.591 3.596 3.596 0 0 0-3.601 3.591 3.596 3.596 0 0 0 3.601 3.592ZM95.616 46.647a3.596 3.596 0 0 1-3.6 3.591 3.596 3.596 0 0 1-3.602-3.591 3.596 3.596 0 0 1 3.601-3.592 3.596 3.596 0 0 1 3.601 3.592Zm-1.151 18.82c1.988 0 3.6-1.609 3.6-3.592a3.596 3.596 0 0 0-3.6-3.592 3.596 3.596 0 0 0-3.601 3.592 3.596 3.596 0 0 0 3.6 3.592Zm.29 10.2a4.315 4.315 0 0 1-4.322 4.309 4.315 4.315 0 0 1-4.32-4.31c0-2.38 1.934-4.31 4.32-4.31a4.315 4.315 0 0 1 4.321 4.31Zm-17.43 4.308a5.035 5.035 0 0 0 5.04-5.028 5.035 5.035 0 0 0-5.04-5.029 5.035 5.035 0 0 0-5.042 5.029 5.035 5.035 0 0 0 5.041 5.028Zm-9.505-2.296c0 3.173-2.58 5.746-5.762 5.746-3.182 0-5.761-2.573-5.761-5.746 0-3.174 2.58-5.747 5.761-5.747 3.182 0 5.762 2.573 5.762 5.747ZM45.35 91.614c3.739 0 6.77-3.023 6.77-6.752 0-3.729-3.031-6.752-6.77-6.752-3.739 0-6.77 3.023-6.77 6.752 0 3.73 3.031 6.752 6.77 6.752Zm-9.22 5.746c0 4.443-3.61 8.045-8.066 8.045-4.454 0-8.065-3.602-8.065-8.045s3.611-8.045 8.066-8.045c4.454 0 8.065 3.602 8.065 8.045Zm2.45-22.555c3.739 0 6.77-3.023 6.77-6.752 0-3.73-3.031-6.752-6.77-6.752-3.739 0-6.77 3.023-6.77 6.752 0 3.73 3.031 6.752 6.77 6.752ZM61.047 60.87c0 3.173-2.58 5.746-5.761 5.746-3.182 0-5.761-2.573-5.761-5.746 0-3.174 2.58-5.747 5.76-5.747 3.183 0 5.762 2.573 5.762 5.747Zm-8.208-9.482c3.182 0 5.76-2.573 5.76-5.746 0-3.174-2.578-5.747-5.76-5.747s-5.762 2.573-5.762 5.747c0 3.173 2.58 5.746 5.762 5.746Zm20.308-8.476a5.035 5.035 0 0 1-5.04 5.028 5.035 5.035 0 0 1-5.042-5.028 5.035 5.035 0 0 1 5.041-5.028 5.035 5.035 0 0 1 5.041 5.028Zm8.065 5.029c2.387 0 4.321-1.93 4.321-4.31s-1.934-4.31-4.32-4.31a4.316 4.316 0 0 0-4.322 4.31c0 2.38 1.935 4.31 4.321 4.31Zm6.77 10.916c0 2.38-1.934 4.31-4.321 4.31a4.315 4.315 0 0 1-4.32-4.31c0-2.38 1.934-4.31 4.32-4.31a4.316 4.316 0 0 1 4.321 4.31ZM70.555 63.31a5.034 5.034 0 0 0 5.04-5.028 5.035 5.035 0 0 0-5.04-5.028 5.035 5.035 0 0 0-5.041 5.028 5.034 5.034 0 0 0 5.04 5.028ZM58.888 98.94a2.589 2.589 0 0 1-2.593 2.586 2.589 2.589 0 0 1-2.592-2.586 2.59 2.59 0 0 1 2.592-2.586 2.59 2.59 0 0 1 2.593 2.586Zm7.779 1.293a3.164 3.164 0 0 0 3.168-3.16 3.164 3.164 0 0 0-3.168-3.16 3.165 3.165 0 0 0-3.17 3.16 3.164 3.164 0 0 0 3.17 3.16Zm14.978-7.9a3.596 3.596 0 0 1-3.6 3.592 3.596 3.596 0 0 1-3.602-3.591 3.596 3.596 0 0 1 3.601-3.592c1.989 0 3.6 1.608 3.6 3.592Zm-.865 15.083c2.386 0 4.321-1.93 4.321-4.31s-1.935-4.31-4.32-4.31a4.315 4.315 0 0 0-4.322 4.31c0 2.38 1.935 4.31 4.321 4.31Zm-10.225-.862a3.596 3.596 0 0 1-3.6 3.591 3.596 3.596 0 0 1-3.601-3.591 3.596 3.596 0 0 1 3.6-3.592 3.596 3.596 0 0 1 3.601 3.592ZM54.711 110a3.165 3.165 0 0 0 3.169-3.16 3.165 3.165 0 0 0-3.17-3.161 3.165 3.165 0 0 0-3.168 3.161 3.165 3.165 0 0 0 3.169 3.16Zm3.743 6.322a3.596 3.596 0 0 1-3.6 3.592 3.596 3.596 0 0 1-3.601-3.592 3.596 3.596 0 0 1 3.6-3.591 3.595 3.595 0 0 1 3.601 3.591Zm11.093 5.46c2.386 0 4.32-1.93 4.32-4.31s-1.934-4.31-4.32-4.31a4.316 4.316 0 0 0-4.321 4.31c0 2.38 1.934 4.31 4.32 4.31Zm22.182-6.895c0 2.776-2.257 5.027-5.042 5.027a5.034 5.034 0 0 1-5.04-5.027 5.035 5.035 0 0 1 5.04-5.029 5.035 5.035 0 0 1 5.042 5.029Zm5.04 17.525c3.181 0 5.761-2.573 5.761-5.747s-2.58-5.746-5.761-5.746c-3.183 0-5.762 2.572-5.762 5.746 0 3.174 2.58 5.747 5.761 5.747Zm-16.132-3.303a5.035 5.035 0 0 1-5.041 5.028 5.035 5.035 0 0 1-5.041-5.028 5.035 5.035 0 0 1 5.04-5.028 5.035 5.035 0 0 1 5.042 5.028ZM63.64 143.905a5.035 5.035 0 0 0 5.041-5.028 5.035 5.035 0 0 0-5.04-5.028 5.035 5.035 0 0 0-5.042 5.028 5.035 5.035 0 0 0 5.041 5.028Zm15.7 6.897c0 3.174-2.58 5.747-5.762 5.747-3.181 0-5.76-2.573-5.76-5.747s2.579-5.746 5.76-5.746c3.182 0 5.762 2.572 5.762 5.746Zm20.742 8.045c3.739 0 6.77-3.023 6.77-6.752 0-3.729-3.031-6.752-6.77-6.752-3.739 0-6.77 3.023-6.77 6.752 0 3.729 3.031 6.752 6.77 6.752Zm-8.787-17.815c0 3.173-2.58 5.746-5.762 5.746-3.181 0-5.76-2.573-5.76-5.746 0-3.174 2.579-5.747 5.76-5.747 3.182 0 5.762 2.573 5.762 5.747Zm19.877 3.45c3.739 0 6.77-3.023 6.77-6.753 0-3.729-3.031-6.751-6.77-6.751-3.738 0-6.769 3.022-6.769 6.751 0 3.73 3.031 6.753 6.769 6.753Zm-49.26-17.24a4.315 4.315 0 0 1-4.321 4.309 4.315 4.315 0 0 1-4.32-4.309 4.315 4.315 0 0 1 4.32-4.31 4.315 4.315 0 0 1 4.321 4.31Z" clip-rule="evenodd"/>
  </g>
  <defs>
    <clipPath id="iota-evm-ico_svg__a">
      <rect width="180" height="180" fill="#fff" rx="90"/>
    </clipPath>
  </defs>
</svg>
